X: 28860
T: Mympwy Llwyd
R: reel
M: 4/4
K: Gmajor
|:BGBd AFAc|BGBd A2 D2|BGBd AFAc BcAB G2 G2:|
|:gafg efdf|gafg e2 d2|gafg edeg|dBcA G2 G2:|

